X:76
T:Whirligig
M:6/8
L:1/8
K:Ebmaj clef=treble
P:A
[||:"Cm"c'c'c' e'd'c'|"Gm"b2g b2b|"Cm"c'c'c' e'd'c'|"Gm"bgg g2c':|
[||:"Eb"b2a bag|"Fm"aff fga|"Gm"ggg gab|"Cm"c'cc c2c':|

